X:138
T: Three Halfpence a Day
N: O'Farrell's Pocket Companion v.2 (Sky ed. p.73)
N: "Irish"
N: Accidentals as in original except for B natural in measure 12
M: 6/8
L: 1/8
R: jig
Q: 320
K: F
A|D2E F2G|A2A ABG|D2E F2G|AFD D3|
D2E F2G|A2A ABG|f3 fed|cAG F2 :|
c|=BGG AGG|=BGG AGG|gag g^fe |d=BG G2c|
BGG AGG|BGG AGG|fag fed|cAG F2 :|
